astro/public/img/icons/tokens.svg

<?xml version="1.0" encoding="UTF-8"?>
<svg width="70px" height="70px" viewBox="0 0 70 70" version="1.1" xmlns="http://www.w3.org/2000/svg" xmlns:xlink="http://www.w3.org/1999/xlink">
    <title>tokens</title>
    <defs>
        <linearGradient x1="0%" y1="0%" x2="100%" y2="100%" id="linearGradient-1">
            <stop stop-color="#A4AEBE" offset="0%"></stop>
            <stop stop-color="#2A49D0" offset="100%"></stop>
        </linearGradient>
    </defs>
    <g id="tokens" stroke="none" stroke-width="1" fill="none" fill-rule="evenodd">
        <g id="key-(1)" transform="translate(6.000000, 5.000000)" fill="url(#linearGradient-1)" fill-rule="nonzero">
            <path d="M53.4391739,5.56085219 C46.0246431,-1.85367501 33.9602866,-1.85355978 26.5457558,5.56085219 C21.4816622,10.6249433 19.7231844,18.0897127 21.915059,24.8606557 L0.506455449,46.2693641 C0.18218568,46.5935185 0,47.0332529 0,47.4917706 L0,57.2712535 C0,58.2260857 0.774029864,59 1.72874736,59 L11.508235,59 C11.9668681,59 12.4063724,58.8178144 12.7307574,58.4935448 L15.1760326,56.0482708 C15.5495075,55.6746808 15.7318084,55.1509405 15.6707341,54.626163 L15.3655933,52.0007776 L19.0051585,51.6577248 C19.83162,51.5798263 20.4861517,50.9254101 20.5640502,50.098949 L20.9073337,46.4589247 L23.5329508,46.7640654 C24.0231582,46.8213369 24.5138265,46.6660009 24.8823463,46.3379285 C25.2506357,46.0099714 25.4613995,45.5401608 25.4613995,45.0468423 L25.4613995,41.8274235 L28.6222807,41.8274235 C29.0773416,41.8274235 29.513965,41.6480036 29.8376586,41.3281129 L34.1326773,37.082647 C40.905237,39.2779776 48.3736975,37.5198463 53.4392891,32.454142 C60.8535895,25.03973 60.8535895,12.9752642 53.4391739,5.56085219 Z M50.9943596,30.0094441 C46.6308916,34.3727948 40.0855743,35.7347502 34.3195876,33.4796129 C33.683263,33.2308218 32.960282,33.3799352 32.4745687,33.8601169 L27.9120908,38.3699305 L23.7325369,38.3699305 C22.7778194,38.3699305 22.0037896,39.14396 22.0037896,40.098677 L22.0037896,43.1054883 L19.5516003,42.8205136 C19.0896253,42.7669296 18.6256914,42.9015234 18.2642009,43.1939883 C17.9028256,43.4865685 17.6744309,43.9123596 17.6307571,44.3753714 L17.2558994,48.3496908 L13.2819238,48.7242026 C12.8189117,48.7678764 12.3931204,48.9961558 12.1004249,49.3576461 C11.8078446,49.7190212 11.6731355,50.1831853 11.7268348,50.6450448 L12.1396046,54.1947254 L10.7920528,55.5426222 L3.45737949,55.5426222 L3.45737949,48.2080677 L25.1326356,26.5328222 C25.6182336,26.0472244 25.7704583,25.3202105 25.5202843,24.6806596 C23.2649155,18.9145605 24.627102,12.3694769 28.9904548,8.00589575 C35.0570882,1.93949583 44.9278415,1.93949583 50.9942444,8.00589575 C57.0606473,14.0721804 57.0606473,23.9430442 50.9943596,30.0094441 Z" id="Combined-Shape"></path>
        </g>
    </g>
</svg>

<svg xmlns="http://www.w3.org/2000/svg" width="70" height="70"><defs><linearGradient id="a" x1="0%" x2="100%" y1="0%" y2="100%"><stop offset="0%" stop-color="#A4AEBE"/><stop offset="100%" stop-color="#2A49D0"/></linearGradient></defs><path fill="url(#a)" d="M53.44 5.56c-7.415-7.414-19.48-7.414-26.894 0a19.014 19.014 0 0 0-4.63 19.3L.505 46.27A1.728 1.728 0 0 0 0 47.491v9.78A1.73 1.73 0 0 0 1.729 59h9.78a1.73 1.73 0 0 0 1.222-.506l2.445-2.446c.374-.373.556-.897.495-1.422l-.305-2.625 3.64-.343a1.729 1.729 0 0 0 1.558-1.56l.343-3.64 2.626.306a1.728 1.728 0 0 0 1.928-1.717v-3.22h3.161a1.73 1.73 0 0 0 1.216-.499l4.295-4.245a19.014 19.014 0 0 0 19.306-4.629c7.415-7.414 7.415-19.479 0-26.893Zm-2.446 24.45c-4.363 4.363-10.908 5.725-16.674 3.47a1.729 1.729 0 0 0-1.845.38l-4.563 4.51h-4.18c-.954 0-1.728.774-1.728 1.729v3.006l-2.452-.284a1.73 1.73 0 0 0-1.921 1.554l-.375 3.975-3.974.374a1.729 1.729 0 0 0-1.555 1.921l.413 3.55-1.348 1.348H3.457v-7.335l21.676-21.675a1.729 1.729 0 0 0 .387-1.852c-2.255-5.766-.893-12.312 3.47-16.675 6.067-6.067 15.938-6.067 22.004 0 6.067 6.066 6.067 15.937 0 22.003Z" transform="translate(6 5)"/></svg>
